X: 1
T: Anderson's Jig
C: Carol Cook
Z: John Chambers <jc:trillian.mit.edu>
M: 6/8
L: 1/8
K: C
zG \
| "C"c2e "G7"dcB \
| "C"cGE "C7"CEG \
| "F"AGF "C"GFE \
| "Dm"DEF "G7"GAB \
| "C"cde "G7"dcB \
| "C"cGE CEG \
| "F"A<fe "G7"d<gB \
| "C"c3- c :|
|: ef \
| "C"gec "F"afc \
| "C"gec cde \
| "Dm"fed "D7"edc \
| "G"dBG "G7"GAB \
| "C"cde "G7"dcB \
| "C"cGE CEG \
| "F"A<fe "G7"d<gB \
| "C"c3- c :|
